X:1
T:John Blunt
M:6/8
L:1/8
K:D
A|FFF FFF|EDE D2D|D2F A2A|(F2G) A2A|d2d (cB)A|BAB ADE|F2F FED|(B,2C) D3|]
w:There was an old cou-ple lived un-der the hill And Blunt it was their name_o They had good beer_ and ale for to sell And it bore a won-der-ful fame_o